flaticon/emoticons/avatar.svg

<svg xmlns="http://www.w3.org/2000/svg" width="32" height="32" viewBox="0 0 24 24">
    <path d="M10.640625 11.320312C10.640625 9.574219 9.21875 8.152344 7.472656 8.152344 5.722656 8.152344 4.300781 9.574219 4.300781 11.320312 4.300781 13.066406 5.722656 14.492188 7.472656 14.492188 9.21875 14.492188 10.640625 13.066406 10.640625 11.320312zM7.472656 13.585938C6.222656 13.585938 5.207031 12.570312 5.207031 11.320312 5.207031 10.074219 6.222656 9.054688 7.472656 9.054688 8.71875 9.054688 9.734375 10.074219 9.734375 11.320312 9.734375 12.570312 8.71875 13.585938 7.472656 13.585938zM16.527344 8.152344C14.78125 8.152344 13.359375 9.574219 13.359375 11.320312 13.359375 13.066406 14.78125 14.492188 16.527344 14.492188 18.277344 14.492188 19.699219 13.066406 19.699219 11.320312 19.699219 9.574219 18.277344 8.152344 16.527344 8.152344zM16.527344 13.585938C15.28125 13.585938 14.265625 12.570312 14.265625 11.320312 14.265625 10.074219 15.28125 9.054688 16.527344 9.054688 17.777344 9.054688 18.792969 10.074219 18.792969 11.320312 18.792969 12.570312 17.777344 13.585938 16.527344 13.585938zM16.527344 13.585938"/>
    <path d="M 19.699219 2.71875 L 15.621094 2.71875 L 15.621094 1.042969 C 15.621094 0.46875 15.15625 0 14.578125 0 L 9.421875 0 C 8.84375 0 8.378906 0.46875 8.378906 1.042969 L 8.378906 2.71875 L 4.300781 2.71875 C 3.054688 2.71875 2.039062 3.734375 2.039062 4.980469 L 2.039062 19.925781 C 2.039062 21.171875 3.054688 22.1875 4.300781 22.1875 L 5.660156 22.1875 L 5.660156 22.957031 C 5.660156 23.53125 6.128906 24 6.703125 24 L 17.296875 24 C 17.871094 24 18.339844 23.53125 18.339844 22.957031 L 18.339844 22.1875 L 19.699219 22.1875 C 20.945312 22.1875 21.960938 21.171875 21.960938 19.925781 L 21.960938 4.980469 C 21.960938 3.734375 20.945312 2.71875 19.699219 2.71875 Z M 9.28125 1.042969 C 9.28125 0.96875 9.34375 0.90625 9.421875 0.90625 L 14.578125 0.90625 C 14.65625 0.90625 14.71875 0.96875 14.71875 1.042969 L 14.71875 2.71875 L 9.28125 2.71875 Z M 13.8125 5.433594 L 15.433594 5.433594 L 12 8.867188 L 8.566406 5.433594 L 10.1875 5.433594 C 10.4375 5.433594 10.640625 5.230469 10.640625 4.980469 L 10.640625 3.621094 L 13.359375 3.621094 L 13.359375 4.980469 C 13.359375 5.230469 13.5625 5.433594 13.8125 5.433594 Z M 17.433594 22.957031 C 17.433594 23.03125 17.371094 23.09375 17.296875 23.09375 L 6.703125 23.09375 C 6.628906 23.09375 6.566406 23.03125 6.566406 22.957031 L 6.566406 22.1875 L 17.433594 22.1875 Z M 21.054688 19.925781 C 21.054688 20.671875 20.445312 21.28125 19.699219 21.28125 L 4.300781 21.28125 C 3.554688 21.28125 2.945312 20.671875 2.945312 19.925781 L 2.945312 4.980469 C 2.945312 4.230469 3.554688 3.621094 4.300781 3.621094 L 9.734375 3.621094 L 9.734375 4.527344 L 7.472656 4.527344 C 7.289062 4.527344 7.125 4.636719 7.054688 4.808594 C 6.984375 4.976562 7.023438 5.171875 7.152344 5.300781 L 11.679688 9.828125 C 11.769531 9.917969 11.882812 9.960938 12 9.960938 C 12.117188 9.960938 12.230469 9.917969 12.320312 9.828125 L 16.847656 5.300781 C 16.976562 5.171875 17.015625 4.976562 16.945312 4.808594 C 16.875 4.636719 16.710938 4.527344 16.527344 4.527344 L 14.265625 4.527344 L 14.265625 3.621094 L 19.699219 3.621094 C 20.445312 3.621094 21.054688 4.230469 21.054688 4.980469 Z M 21.054688 19.925781"/>
    <path d="M 15.167969 17.660156 L 8.832031 17.660156 C 8.582031 17.660156 8.378906 17.863281 8.378906 18.113281 C 8.378906 18.363281 8.582031 18.566406 8.832031 18.566406 L 15.167969 18.566406 C 15.417969 18.566406 15.621094 18.363281 15.621094 18.113281 C 15.621094 17.863281 15.417969 17.660156 15.167969 17.660156 Z M 15.167969 17.660156"/>
</svg>

<svg xmlns="http://www.w3.org/2000/svg" width="32" height="32" viewBox="0 0 24 24">
    <path d="M10.64 11.32a3.172 3.172 0 0 0-3.167-3.168A3.173 3.173 0 0 0 4.3 11.32a3.177 3.177 0 0 0 3.172 3.172 3.176 3.176 0 0 0 3.168-3.172zm-3.167 2.266a2.267 2.267 0 0 1-2.266-2.266 2.27 2.27 0 0 1 2.266-2.265 2.266 2.266 0 0 1 0 4.531zm0 0M16.527 8.152a3.172 3.172 0 0 0-3.168 3.168 3.176 3.176 0 0 0 3.168 3.172A3.177 3.177 0 0 0 19.7 11.32a3.173 3.173 0 0 0-3.172-3.168zm0 5.434a2.266 2.266 0 0 1 0-4.531 2.27 2.27 0 0 1 2.266 2.265 2.267 2.267 0 0 1-2.266 2.266zm0 0"/>
    <path d="M19.7 2.719H15.62V1.043C15.621.469 15.156 0 14.578 0H9.422c-.578 0-1.043.469-1.043 1.043v1.676H4.3A2.266 2.266 0 0 0 2.039 4.98v14.946a2.266 2.266 0 0 0 2.262 2.262h1.36v.769c0 .574.468 1.043 1.042 1.043h10.594c.574 0 1.043-.469 1.043-1.043v-.77h1.36a2.266 2.266 0 0 0 2.26-2.261V4.98A2.266 2.266 0 0 0 19.7 2.72zM9.28 1.043a.14.14 0 0 1 .14-.137h5.157a.14.14 0 0 1 .14.137v1.676H9.282zm4.531 4.39h1.622L12 8.868 8.566 5.434h1.621c.25 0 .454-.204.454-.454V3.621h2.718v1.36c0 .25.204.453.454.453zm3.622 17.524a.138.138 0 0 1-.137.137H6.703a.138.138 0 0 1-.137-.137v-.77h10.868zm3.62-3.031c0 .746-.609 1.355-1.355 1.355H4.301c-.746 0-1.356-.61-1.356-1.355V4.98c0-.75.61-1.359 1.356-1.359h5.433v.906H7.473a.45.45 0 0 0-.418.282.451.451 0 0 0 .097.492l4.528 4.527c.09.09.203.133.32.133.117 0 .23-.043.32-.133l4.528-4.527a.451.451 0 0 0 .097-.492.45.45 0 0 0-.418-.282h-2.261v-.906h5.433c.746 0 1.356.61 1.356 1.36zm0 0"/>
    <path d="M15.168 17.66H8.832a.453.453 0 0 0 0 .906h6.336a.453.453 0 0 0 0-.906zm0 0"/>
</svg>
